src/assets/images/partner-4.svg

<svg width="175" height="39" viewBox="0 0 175 39" fill="none" xmlns="http://www.w3.org/2000/svg">
<g clip-path="url(#clip0_342_507)">
<path d="M89.7105 13.8548H93.7308V30.9022H89.7105V13.8548ZM80.4003 24.2677H80.3399L77.62 13.8549H74.415L71.6649 24.2677H71.604L68.5512 13.8549H64.2587L70.3042 30.9023H72.7829L75.9569 19.8446H76.0178L79.161 30.9023H81.6402L87.7764 13.8549H83.4838L80.4003 24.2677ZM105.308 13.2715C103.373 13.2715 102.044 14.0081 100.713 15.3296V13.8548H96.9953V30.9022H101.016V22.7931C101.016 21.534 101.016 19.5987 101.741 18.524C102.345 17.6327 103.434 17.0189 104.492 17.0189C107.484 17.0189 107.877 20.1206 107.877 22.486V30.9022H111.898V21.442C111.898 19.4454 111.656 17.2333 110.356 15.6363C109.178 14.193 107.152 13.2715 105.308 13.2715ZM170.54 13.8549L167.457 24.2677H167.397L164.676 13.8549H161.472L158.721 24.2677H158.661L155.607 13.8549H151.315L157.361 30.9022H159.84L163.014 19.8445H163.074L166.218 30.9022H168.696L174.832 13.8549H170.54ZM123.445 13.2715C121.51 13.2715 120.18 14.0081 118.85 15.3296V13.8548H115.132V30.9022H119.152V22.7931C119.152 21.534 119.152 19.5987 119.878 18.524C120.483 17.6327 121.57 17.0189 122.629 17.0189C125.621 17.0189 126.014 20.1206 126.014 22.486V30.9022H130.034V21.442C130.034 19.4454 129.793 17.2333 128.493 15.6363C127.314 14.193 125.289 13.2715 123.445 13.2715ZM141.339 27.7078C144.181 27.7078 146.207 25.2199 146.207 22.4246C146.207 19.6907 144.181 17.0188 141.339 17.0188C138.498 17.0188 136.412 19.6292 136.412 22.394C136.412 25.2504 138.438 27.7078 141.339 27.7078ZM141.339 13.2715C142.51 13.2691 143.669 13.502 144.75 13.9569C145.832 14.4118 146.814 15.0796 147.64 15.9219C148.466 16.7642 149.12 17.7643 149.564 18.8645C150.008 19.9648 150.233 21.1434 150.227 22.3326C150.227 27.4931 146.418 31.4548 141.339 31.4548C136.443 31.4548 132.392 27.3696 132.392 22.394C132.392 17.3874 136.382 13.2715 141.339 13.2715Z" fill="white"/>
<path d="M55.311 13.301C55.3111 11.9497 54.9393 10.6252 54.2375 9.47726C53.5357 8.32933 52.532 7.40373 51.3397 6.80503C51.5789 6.65028 51.8008 6.46957 52.0016 6.26607C52.4901 5.7655 52.8414 5.14388 53.0206 4.46284C53.1999 3.78179 53.2008 3.06497 53.0234 2.38343C52.0121 2.11439 50.9374 2.25718 50.0282 2.7814C49.7489 1.75822 49.0891 0.885486 48.1881 0.347656C47.2833 0.887927 46.6218 1.76587 46.3446 2.79444C45.433 2.2641 44.3531 2.11838 43.3369 2.38859C43.1595 3.07013 43.1604 3.78694 43.3397 4.46799C43.5189 5.14903 43.8702 5.77065 44.3587 6.27123C44.5581 6.47351 44.7785 6.65331 45.0159 6.80749C44.1422 7.24694 43.3664 7.86381 42.7366 8.61999C42.1068 9.37616 41.6363 10.2556 41.3542 11.2038C41.0722 12.1521 40.9845 13.1491 41.0966 14.1332C41.2088 15.1172 41.5184 16.0675 42.0063 16.9251H42.0052L48.1803 27.793L54.355 16.9251H54.354C54.9822 15.8241 55.3124 14.5737 55.311 13.301ZM41.6121 37.7022C40.801 38.1786 39.9054 38.4878 38.9766 38.6123C38.0478 38.7368 37.104 38.674 36.1991 38.4276C35.2942 38.1813 34.4459 37.7561 33.7028 37.1764C32.9597 36.5967 32.3363 35.8739 31.8682 35.0493L27.7499 27.8009L23.6315 35.0493C23.0054 36.1511 22.1049 37.066 21.0205 37.7021C19.9361 38.3382 18.7061 38.6731 17.454 38.6731C16.2019 38.6731 14.9719 38.3382 13.8875 37.7021C12.8031 37.066 11.9026 36.1511 11.2765 35.0493L0.981048 16.9287C0.51185 16.1044 0.207116 15.1942 0.0842612 14.2501C-0.0385935 13.3061 0.0228395 12.3467 0.265049 11.4267C0.507259 10.5068 0.925498 9.64439 1.49586 8.88879C2.06623 8.13319 2.77754 7.4992 3.58914 7.02306C4.40074 6.54692 5.29673 6.23797 6.22589 6.11385C7.15506 5.98974 8.09918 6.0529 9.00432 6.29972C9.90945 6.54654 10.7578 6.97219 11.501 7.55233C12.2442 8.13248 12.8676 8.85575 13.3355 9.68081L17.4539 16.9287L21.5733 9.67903C22.1994 8.57723 23.0999 7.66231 24.1843 7.0262C25.2687 6.3901 26.4987 6.05522 27.7508 6.05522C29.0029 6.05522 30.2329 6.3901 31.3173 7.0262C32.4017 7.66231 33.3022 8.57723 33.9283 9.67903L44.2229 27.8014C45.1688 29.4661 45.4251 31.4445 44.9355 33.3013C44.4458 35.158 43.2504 36.7411 41.6121 37.7022Z" fill="white"/>
</g>
<defs>
<clipPath id="clip0_342_507">
<rect width="174.808" height="38.3268" fill="white" transform="translate(0.0246582 0.347656)"/>
</clipPath>
</defs>
</svg>

<svg xmlns="http://www.w3.org/2000/svg" width="175" height="39" fill="none"><g fill="#fff" clip-path="url(#a)"><path d="M89.71 13.855h4.02v17.047h-4.02V13.855ZM80.4 24.268h-.06l-2.72-10.413h-3.205l-2.75 10.413h-.061l-3.053-10.413H64.26l6.045 17.047h2.479l3.174-11.057h.06l3.144 11.057h2.48l6.135-17.047h-4.292L80.4 24.268Zm24.908-10.997c-1.935 0-3.264.737-4.595 2.059v-1.475h-3.718v17.047h4.021v-8.109c0-1.259 0-3.194.725-4.269.604-.891 1.693-1.505 2.751-1.505 2.992 0 3.385 3.102 3.385 5.467v8.416h4.021v-9.46c0-1.997-.242-4.209-1.542-5.806-1.178-1.443-3.204-2.364-5.048-2.364Zm65.232.584-3.083 10.413h-.06l-2.721-10.413h-3.204l-2.751 10.413h-.06l-3.054-10.413h-4.292l6.046 17.047h2.479l3.174-11.058h.06l3.144 11.058h2.478l6.136-17.047h-4.292Zm-47.095-.584c-1.935 0-3.265.737-4.595 2.059v-1.475h-3.718v17.047h4.02v-8.109c0-1.259 0-3.194.726-4.269.605-.891 1.692-1.505 2.751-1.505 2.992 0 3.385 3.102 3.385 5.467v8.416h4.02v-9.46c0-1.997-.241-4.209-1.541-5.806-1.179-1.443-3.204-2.364-5.048-2.364Zm17.894 14.437c2.842 0 4.868-2.488 4.868-5.283 0-2.734-2.026-5.406-4.868-5.406-2.841 0-4.927 2.61-4.927 5.375 0 2.856 2.026 5.314 4.927 5.314Zm0-14.436a8.745 8.745 0 0 1 3.411.685 8.855 8.855 0 0 1 2.89 1.965 9.027 9.027 0 0 1 1.924 2.942c.444 1.1.669 2.28.663 3.469 0 5.16-3.809 9.122-8.888 9.122-4.896 0-8.947-4.085-8.947-9.061 0-5.007 3.99-9.122 8.947-9.122ZM55.311 13.301a7.332 7.332 0 0 0-1.074-3.824 7.173 7.173 0 0 0-2.897-2.672c.239-.155.46-.335.662-.539a4.06 4.06 0 0 0 1.019-1.803c.179-.681.18-1.398.002-2.08a3.955 3.955 0 0 0-2.995.398 4.083 4.083 0 0 0-1.84-2.433 4.084 4.084 0 0 0-1.843 2.446 3.954 3.954 0 0 0-3.008-.405 4.108 4.108 0 0 0 .003 2.079 4.06 4.06 0 0 0 1.019 1.803c.2.203.42.382.657.536a7.147 7.147 0 0 0-2.28 1.813 7.281 7.281 0 0 0-1.382 2.584 7.359 7.359 0 0 0 .652 5.721l6.174 10.868 6.175-10.868h-.001a7.3 7.3 0 0 0 .957-3.624ZM41.612 37.702a7.02 7.02 0 0 1-5.413.725 7.083 7.083 0 0 1-2.496-1.25 7.212 7.212 0 0 1-1.835-2.128l-4.118-7.248-4.119 7.248a7.191 7.191 0 0 1-2.61 2.653 7.047 7.047 0 0 1-3.567.971 7.047 7.047 0 0 1-3.567-.97 7.191 7.191 0 0 1-2.61-2.654L.98 16.93a7.361 7.361 0 0 1-.716-5.502c.242-.92.66-1.783 1.23-2.538A7.17 7.17 0 0 1 3.59 7.023 7.023 7.023 0 0 1 9.004 6.3a7.088 7.088 0 0 1 2.497 1.252 7.213 7.213 0 0 1 1.835 2.129l4.118 7.248 4.12-7.25a7.192 7.192 0 0 1 2.61-2.653 7.047 7.047 0 0 1 3.567-.97c1.252 0 2.482.334 3.566.97a7.192 7.192 0 0 1 2.611 2.653l10.295 18.122a7.35 7.35 0 0 1 .712 5.5 7.234 7.234 0 0 1-3.323 4.401Z"/></g><defs><clipPath id="a"><path fill="#fff" d="M.025.348h174.808v38.327H.025z"/></clipPath></defs></svg>
